X:1
T:9. O Tobias!
T:9. O Tobias!
T:(An Tobias Haslinger.)
T:Ludwig van Beethoven Componirt in Baden, am 10. September 1821. 
C:Ludwig van Beethoven Componirt in Baden, am 10. September 1821.
%%score [ 1 2 3 ]
L:1/8
Q:1/4=72
M:2/4
K:F
V:1 treble nm="SOPRANO."
V:2 treble-8 nm="TENORE."
V:3 bass nm="BASSO."
V:1
"^Dreistimmiger Canon." z4 |: A D F D | z4 | ^c A c A | z4 | d2 c c | (B2 A2 | G2 c2 | B2 A2 | %9
w: |O To- bi as!||O To- bi- as||Do- mi- nus|Has- *|||
 G2 F2 | B2 A2 | G2 F2 | E2) D D | A4 | F4 :| %15
w: |||* lin- ger|o!|o!|
V:2
 z4 |: d3 d | e2 A2 | e3 e | f2 d d | g G z c | e2 c c | e2 f A | (Bc) d d | d2 d d | d2 d2 | %11
w: |O To-|bi- as!|O To-|bi- as, To-|bi- as, To-|bi- as, To-|bi- as, To-|bi- * as, To-|bi- as, To-|bi- as|
 ^c2 d d | ^c2 =B A | z2 F2 | z2 d2 :| %15
w: Do- mi- nus|Has- lin- ger|o!|o!|
V:3
 A, D, F, D, |: z4 | ^C A, C A, | z4 | D2 C C | (B,2 A,2 | G,2 C2 | B,2 A,2 | G,2 F,2 | B,2 A,2 | %10
w: O To- bi as!||O To- bi- as||Do- mi- nus|Has- *|||||
 G,2 F,2 | E,2) D, D, | A,4 | F,4 | A, D, F, D, :| %15
w: |* lin- ger|o!|o!|O To- bi- as!|

